X:1
T:Coming King of Kings
T:Flora H. Cassell
T:Coming King of Kings
T:Public Domain
T:Public Domain
C:Flora H. Cassell
Z:Public Domain
%%score ( 1 2 ) ( 3 4 )
L:1/8
M:3/4
K:Bb
V:1 treble 
V:2 treble 
V:3 bass 
V:4 bass 
V:1
 [DF] | [B,D]>[DF] [DB]3 [Ec] | [EB]>[EA] [EA]3 [EG] | [EF]<[Fe]- [Fe]2 [Fd]>[Fc] | %4
w: 1.~In|Thine own word, oh,|bless- èd Lord Thy|com- ing * is fore-|
w: 2.~Oh,|grant that we ere|long may see Thy|com- ing * in the|
 [Fd]2- [Fd]>[Fd] [Fd]>[Fd] | [^Fd]3 [FA] [FA]>[Ac] | [GB]2- [GB]3 [DB] | [=EB]3 [EB] [EA]>[EG] | %8
w: told; * We can not|say how soon the|day * Will|dawn and we be-|
w: sky, * In splen- dor|bright and rai- ment|white, * With|an- gels from on|
 F3- F>[Fe][Fd]>[Ec] | [DB]/ [DF]3 [Fe]/ [Fd]>[Fc] | [FB]<[DF]- [DF]3 F | %11
w: hold * The won- drous|ken, of Thy word spok-|en, Thy * com-|
w: high; * Oh, speed the|ing of that glad morn-|ing, The * com-|
 [EG]<[EG]- [EG]2 [EA]>[EF] | [DB]4 z ||"^Refrain" [DF] | ([B,D][DF]) [DB] [Fd]2 [FB] | %15
w: for Thine * own. O|com-|ing|King * of kings, My|
w: of the * King. *||||
 [Ff]3- [Ff]2 [DF] | ([B,D][DF]) [DB] [Fd]2 [Fe] | [Fc]3- [Fc]2 [FA] | (FG) [EA] [Ec]2 [EA] | %19
w: heart * with|rap- * ture sings, I’ll|tell * the|sto- * ry of Thy|
w: ||||
 (FG) [EA] [Ec]2 [EA] | (FG) [EA] [Ec]2 [Ed] | [DB]3- [DB]2 |] %22
w: ry, * Com- ing King|kings. * * * *||
w: |||
V:2
 x | x6 | x6 | x6 | x6 | x6 | x6 | x6 | F3- F3/2 x5/2 | x6 | x5 F | x6 | x5 || x | x6 | x6 | x6 | %17
w: ||||||||to- *||ing|||||||
w: ||||||||dawn- *||ing|||||||
 x6 | E2 x4 | E2 x4 | E2 x4 | x5 |] %22
w: |glo-|of|||
w: |||||
V:3
 [B,,B,] | [B,,F,]>[B,,B,] [B,,F,]3 [F,A,] | [F,C]>[F,C] [F,C]3 [F,C] | %3
 [F,A,]<[F,C]- [F,C]2 [F,B,]>[F,A,] | [B,,B,]2- [B,,B,]>[B,,B,] [B,,B,]>[B,,B,] | %5
 [D,A,]3 [D,D] [D,D]>[D,D] | [G,D]2- [G,D]3 G, | [C,G,]3 [C,G,] [C,C]>[C,B,] | %8
 [F,A,]3- [F,A,]>[F,C][F,B,]>[F,A,] | [B,,F,]/ [B,,B,]3 [F,A,]/ [F,B,]>[F,E] | %10
 [B,D]<[B,D]- [B,D]3 [D,B,] | [E,B,]<[E,B,]- [E,B,]2 [C,F,]>[F,,F,] | [B,,F,]4 z || [B,,B,] | %14
 (F,B,) [B,,F,] [B,,B,]2 [D,B,] | [B,D]3- [B,D]2 [B,,B,] | (F,B,) [B,,F,] [F,B,]2 [F,C] | %17
 [F,A,]3- [F,A,]2 [F,C] | [F,A,]2 [F,C] [F,A,]2 [F,C] | [F,A,]2 [F,C] [F,A,]2 [F,C] | %20
 [F,A,]2 [F,C] [F,A,]2 [F,A,] | [B,,F,B,]3- [B,,F,B,]2 |] %22
V:4
 x | x6 | x6 | x6 | x6 | x6 | x5 G, | x6 | x7 | x6 | x6 | x6 | x5 || x | B,,2 x4 | x6 | B,,2 x4 | %17
 x6 | x6 | x6 | x6 | x5 |] %22

